img/skills/materialize.svg

<svg preserveAspectRatio="xMidYMid" viewBox="0 -47.5 256 256" xmlns="http://www.w3.org/2000/svg"><g stroke-width=".09375"><path d="m63.1816647 4.19975875c.9264173-1.57490953 2.1307599-3.08805791 3.8600723-3.8291918.7102533-.12352232 1.4205067-.06176116 2.13076-.06176116h34.956815c-1.019059.86465621-2.007237 1.760193-2.68661 2.93365501-1.7910735 2.933655-2.9954161 6.20699638-4.107117 9.4803378-3.149819 9.8817852-5.3423401 20.0414957-7.4731001 30.2012062-.9572979 4.6012063-1.8837153 9.2332931-2.7483715 13.8344994-2.6557298 15.0697226-5.4041013 30.1085646-8.8318456 45.0238838-1.6366707 6.88637-3.304222 13.772739-5.8364294 20.412063-1.173462 2.748372-2.3160435 5.682027-4.5703257 7.720145-.5249699.463209-1.0499397 1.04994-1.7910736.957298h-30.880579c-2.0998794-.061761-4.1688782.123522-6.2687576-.092642 1.3896261-1.08082 2.6248492-2.377804 3.4277443-3.921833 2.3160434-4.415923 3.7674306-9.202413 5.1570567-13.958022 2.1616405-7.658384 3.890953-15.4094091 5.5276236-23.1604344 1.0190591-5.0952955 2.2234017-10.1597105 2.9645356-15.2858866.8337757-5.7129071 2.0998794-11.3640531 3.1189385-17.0460796 1.6057901-8.3686369 3.304222-16.7372738 5.1879373-25.0441496 1.5131484-6.4849216 3.0571773-12.9389626 5.1261761-19.2694813 1.0190591-3.0571773 2.1307599-6.08347406 3.7365501-8.89360675z" fill="#eb7077" stroke="#eb7077"/><path d="m104.129312.30880579c.895537 0 1.791074-.03088058 2.686611 0 1.976357 1.04993969 3.643908 2.71749095 4.570325 4.78648975 1.235224 2.346924 2.254283 4.81737032 3.1807 7.34957776 3.088058 9.542099 5.187937 19.3621231 7.287817 29.1512666 1.791073 8.7700845 3.489505 17.5710495 5.095295 26.4028951.123523.4632087-.03088 1.1117008.586731 1.2352231-2.223401 11.6110978-4.415922 23.253076-7.195175 34.7715319-1.513148 6.206996-3.118938 12.383112-5.404101 18.373945-1.235223 2.995416-2.501327 6.268757-5.126176 8.399517-1.667551.370567-2.871894-.895537-3.890953-2.038118-1.760193-2.254282-2.841013-4.910012-3.890953-7.565742-3.4895054-9.511218-5.6202653-19.423884-7.7819059-29.3056694-1.6366706-7.6892642-3.0880579-15.4402895-4.6012062-23.1604343-.6793728-3.9218335-1.6057901-7.7819059-2.13076-11.7037394-.0926417-.0617612-.3088058-.1852835-.4014475-.2470447.8646562-4.6012063 1.7910736-9.2332931 2.7483715-13.8344994 2.13076-10.1597105 4.3232811-20.319421 7.4731001-30.2012062 1.1117009-3.27334142 2.3160435-6.5466828 4.107117-9.4803378.679373-1.17346201 1.667551-2.0689988 2.68661-2.93365501z" fill="#f6a2ad" stroke="#f6a2ad"/><path d="m142.760917 5.65114596c1.111701-2.13075995 2.470446-4.50856454 4.879131-5.31145959 12.25959-.06176116 24.51918-.03088058 36.77877-.03088058-1.142582 1.14258142-2.346924 2.28516285-3.118939 3.73655006-2.377804 4.2615199-3.76743 8.98624845-5.187937 13.64921595-3.643908 12.8463208-6.206996 25.9705669-8.646562 39.094813-2.254282 12.9389626-4.662967 25.8779252-7.411339 38.7551267-1.420507 6.4849215-2.902774 12.9389625-4.78649 19.3312425-1.204342 3.952714-2.470446 7.936309-4.446803 11.611098-.957298 1.667551-2.068999 3.489505-3.890953 4.354161-11.70374.092642-23.43836 0-35.142099.030881-.648492 0-1.327865 0-1.976357-.092642 2.624849-2.13076 3.890953-5.404101 5.126176-8.399517 2.285163-5.990833 3.890953-12.166949 5.404101-18.373945 2.779253-11.5184559 4.971774-23.1604341 7.195175-34.7715319 2.686611-14.9770808 5.496743-29.9541616 9.078891-44.7459589 1.667551-6.3922799 3.273341-12.8772015 6.145235-18.83715324z" fill="#eb7077" stroke="#eb7077"/><path d="m184.418818.30880579c.988178 0 2.007237-.03088058 2.995416 0 1.60579.83377563 2.748372 2.25428227 3.767431 3.70566948 1.667551 2.6557298 2.717491 5.65114596 3.798311 8.58480093 2.563088 7.8745477 4.477684 15.9652594 6.237877 24.0559711 2.346924 10.9008444 4.385042 21.8634499 6.39228 32.8260555.494089 2.6248492.988178 5.280579 1.296984 7.9363088.123522.1235223.370567.3705669.463209.4632087-1.111701 1.5440289-1.544029 3.3968637-2.161641 5.1570567-1.945476 6.2687575-3.21158 12.7536791-4.2924 19.20772-.833776 5.064415-1.976357 10.097949-3.551267 14.977081-1.173462 3.613028-2.593969 7.195175-4.940893 10.221472-1.1117 1.451387-2.624849 2.563088-4.2924 3.304222-2.563088.277925-4.076236-2.192522-5.31146-4.014476-2.563088-4.477684-3.952714-9.480337-5.434982-14.359469-4.879131-18.0651387-8.059831-36.5626055-11.487575-54.93655-.03088-.2779253-.185283-.5249699-.432328-.6484922 2.439566-13.1242461 5.002654-26.2484922 8.646562-39.094813 1.420507-4.6629675 2.810133-9.38769605 5.187937-13.64921595.772015-1.45138721 1.976357-2.59396864 3.118939-3.73655006z" fill="#f6a2ad" stroke="#f6a2ad"/><path d="m.03088058 70.562123c.80289505-.0617611 1.60579011-.1852834 2.43956574-.1852834h33.65983108c1.4205067.1852834 2.9027745.0617611 4.2615199.6793727 1.9763571.8028951 3.7365501 2.1616405 5.0335344 3.8600724.1544029-.0926418.4323281-.3396864.586731-.4632087-.7411339 5.1261761-1.9454765 10.1905911-2.9645356 15.2858866-1.6366706 7.7510253-3.3659831 15.5020504-5.5276236 23.1604344-1.3896261 4.755609-2.8410133 9.542099-5.1570567 13.958022-.8028951 1.544029-2.0381182 2.841013-3.4277443 3.921833-.5249698.092642-.9264173-.277925-1.3587454-.55585-1.4513873-.926418-2.2851629-2.532208-3.1806997-3.983595-4.2306393-9.634741-4.693848-20.28854-7.3186972-30.3556092-1.3278649-5.0335344-2.9645356-10.0361881-5.3732208-14.668275-1.4822677-2.7792521-3.30422191-5.4349819-5.68202649-7.5657419-1.76019301-1.4205066-3.79831122-2.563088-5.99083233-3.0880579z" fill="#f6a2ad" stroke="#f6a2ad"/><path d="m212.087817 73.7737033c1.945476-2.1925212 4.848251-3.5821472 7.781906-3.4586249h25.322074c3.520386.0617612 7.071653-.1235223 10.592039.0926417-1.04994.7102534-2.316043.9881786-3.427744 1.5749096-3.860073 1.760193-7.164295 4.693848-9.264174 8.3686369-3.365983 5.86731-4.539445 12.5992762-5.527624 19.2077201-.988178 6.4849213-.957298 13.1860073-3.057177 19.4856453-1.420507 4.415923-3.582147 8.862726-7.318697 11.765501-11.611098.123522-23.222196.03088-34.802413.061761-.772014 0-1.513148.03088-2.254282-.123522 1.667551-.741134 3.1807-1.852835 4.2924-3.304222 2.346924-3.026297 3.767431-6.608444 4.940893-10.221472 1.57491-4.879132 2.717491-9.912666 3.551267-14.977081 1.08082-6.4540409 2.346924-12.9389625 4.2924-19.20772.617612-1.760193 1.04994-3.6130278 2.161641-5.1570567.926417-1.3587455 1.544029-2.933655 2.717491-4.107117z" fill="#eb7077" stroke="#eb7077"/></g></svg>

<?xml version="1.0" encoding="UTF-8"?>
<svg viewBox="0 -47.5 256 256" version="1.1" xmlns="http://www.w3.org/2000/svg" xmlns:xlink="http://www.w3.org/1999/xlink" preserveAspectRatio="xMidYMid">
    <g>
        <g stroke-width="0.09375">
            <path d="M63.1816647,4.19975875 C64.108082,2.62484922 65.3124246,1.11170084 67.041737,0.370566948 C67.7519903,0.247044632 68.4622437,0.30880579 69.172497,0.30880579 L104.129312,0.30880579 C103.110253,1.173462 102.122075,2.06899879 101.442702,3.2424608 C99.6516285,6.1761158 98.4472859,9.44945718 97.335585,12.7227986 C94.185766,22.6045838 91.9932449,32.7642943 89.8624849,42.9240048 C88.905187,47.5252111 87.9787696,52.1572979 87.1141134,56.7585042 C84.4583836,71.8282268 81.7100121,86.8670688 78.2822678,101.782388 C76.6455971,108.668758 74.9780458,115.555127 72.4458384,122.194451 C71.2723764,124.942823 70.1297949,127.876478 67.8755127,129.914596 C67.3505428,130.377805 66.825573,130.964536 66.0844391,130.871894 L35.2038601,130.871894 C33.1039807,130.810133 31.0349819,130.995416 28.9351025,130.779252 C30.3247286,129.698432 31.5599517,128.401448 32.3628468,126.857419 C34.6788902,122.441496 36.1302774,117.655006 37.5199035,112.899397 C39.681544,105.241013 41.4108565,97.4899879 43.0475271,89.7389626 C44.0665862,84.6436671 45.2709288,79.5792521 46.0120627,74.453076 C46.8458384,68.7401689 48.1119421,63.0890229 49.1310012,57.4069964 C50.7367913,49.0383595 52.4352232,40.6697226 54.3189385,32.3628468 C55.8320869,25.8779252 57.3761158,19.4238842 59.4451146,13.0933655 C60.4641737,10.0361882 61.5758745,7.00989144 63.1816647,4.19975875 Z" stroke="#EB7077" fill="#EB7077"></path>
            <path d="M104.129312,0.30880579 C105.024849,0.30880579 105.920386,0.277925211 106.815923,0.30880579 C108.79228,1.35874548 110.459831,3.02629674 111.386248,5.09529554 C112.621472,7.44221954 113.640531,9.91266586 114.566948,12.4448733 C117.655006,21.9869723 119.754885,31.8069964 121.854765,41.5961399 C123.645838,50.3662244 125.34427,59.1671894 126.95006,67.999035 C127.073583,68.4622437 126.91918,69.1107358 127.536791,69.2342581 C125.31339,80.8453559 123.120869,92.4873341 120.341616,104.00579 C118.828468,110.212786 117.222678,116.388902 114.937515,122.379735 C113.702292,125.375151 112.436188,128.648492 109.811339,130.779252 C108.143788,131.149819 106.939445,129.883715 105.920386,128.741134 C104.160193,126.486852 103.079373,123.831122 102.029433,121.175392 C98.5399276,111.664174 96.4091677,101.751508 94.2475271,91.8697226 C92.6108565,84.1804584 91.1594692,76.4294331 89.6463209,68.7092883 C88.9669481,64.7874548 88.0405308,60.9273824 87.5155609,57.0055489 C87.4229192,56.9437877 87.2067551,56.8202654 87.1141134,56.7585042 C87.9787696,52.1572979 88.905187,47.5252111 89.8624849,42.9240048 C91.9932449,32.7642943 94.185766,22.6045838 97.335585,12.7227986 C98.4472859,9.44945718 99.6516285,6.1761158 101.442702,3.2424608 C102.122075,2.06899879 103.110253,1.173462 104.129312,0.30880579 Z" stroke="#F6A2AD" fill="#F6A2AD"></path>
            <path d="M142.760917,5.65114596 C143.872618,3.52038601 145.231363,1.14258142 147.640048,0.339686369 C159.899638,0.277925211 172.159228,0.30880579 184.418818,0.30880579 C183.276236,1.45138721 182.071894,2.59396864 181.299879,4.04535585 C178.922075,8.30687575 177.532449,13.0316043 176.111942,17.6945718 C172.468034,30.5408926 169.904946,43.6651387 167.46538,56.7893848 C165.211098,69.7283474 162.802413,82.66731 160.054041,95.5445115 C158.633534,102.029433 157.151267,108.483474 155.267551,114.875754 C154.063209,118.828468 152.797105,122.812063 150.820748,126.486852 C149.86345,128.154403 148.751749,129.976357 146.929795,130.841013 C135.226055,130.933655 123.491435,130.841013 111.787696,130.871894 C111.139204,130.871894 110.459831,130.871894 109.811339,130.779252 C112.436188,128.648492 113.702292,125.375151 114.937515,122.379735 C117.222678,116.388902 118.828468,110.212786 120.341616,104.00579 C123.120869,92.4873341 125.31339,80.8453559 127.536791,69.2342581 C130.223402,54.2571773 133.033534,39.2800965 136.615682,24.4882992 C138.283233,18.0960193 139.889023,11.6110977 142.760917,5.65114596 Z" stroke="#EB7077" fill="#EB7077"></path>
            <path d="M184.418818,0.30880579 C185.406996,0.30880579 186.426055,0.277925211 187.414234,0.30880579 C189.020024,1.14258142 190.162606,2.56308806 191.181665,4.01447527 C192.849216,6.67020507 193.899156,9.66562123 194.979976,12.5992762 C197.543064,20.4738239 199.45766,28.5645356 201.217853,36.6552473 C203.564777,47.5560917 205.602895,58.5186972 207.610133,69.4813028 C208.104222,72.106152 208.598311,74.7618818 208.907117,77.4176116 C209.030639,77.5411339 209.277684,77.7881785 209.370326,77.8808203 C208.258625,79.4248492 207.826297,81.277684 207.208685,83.037877 C205.263209,89.3066345 203.997105,95.7915561 202.916285,102.245597 C202.082509,107.310012 200.939928,112.343546 199.365018,117.222678 C198.191556,120.835706 196.771049,124.417853 194.424125,127.44415 C193.312425,128.895537 191.799276,130.007238 190.131725,130.748372 C187.568637,131.026297 186.055489,128.55585 184.820265,126.733896 C182.257177,122.256212 180.867551,117.253559 179.385283,112.374427 C174.506152,94.3092883 171.325452,75.8118215 167.897708,57.437877 C167.866828,57.1599517 167.712425,56.9129071 167.46538,56.7893848 C169.904946,43.6651387 172.468034,30.5408926 176.111942,17.6945718 C177.532449,13.0316043 178.922075,8.30687575 181.299879,4.04535585 C182.071894,2.59396864 183.276236,1.45138721 184.418818,0.30880579 Z" stroke="#F6A2AD" fill="#F6A2AD"></path>
            <path d="M0.030880579,70.562123 C0.833775633,70.5003619 1.63667069,70.3768396 2.47044632,70.3768396 L36.1302774,70.3768396 C37.5507841,70.562123 39.0330519,70.4386007 40.3917973,71.0562123 C42.3681544,71.8591074 44.1283474,73.2178528 45.4253317,74.9162847 C45.5797346,74.8236429 45.8576598,74.5765983 46.0120627,74.453076 C45.2709288,79.5792521 44.0665862,84.6436671 43.0475271,89.7389626 C41.4108565,97.4899879 39.681544,105.241013 37.5199035,112.899397 C36.1302774,117.655006 34.6788902,122.441496 32.3628468,126.857419 C31.5599517,128.401448 30.3247286,129.698432 28.9351025,130.779252 C28.4101327,130.871894 28.0086852,130.501327 27.5763571,130.223402 C26.1249698,129.296984 25.2911942,127.691194 24.3956574,126.239807 C20.1650181,116.605066 19.7018094,105.951267 17.0769602,95.8841978 C15.7490953,90.8506634 14.1124246,85.8480097 11.7037394,81.2159228 C10.2214717,78.4366707 8.39951749,75.7809409 6.02171291,73.6501809 C4.2615199,72.2296743 2.22340169,71.0870929 0.030880579,70.562123 Z" stroke="#F6A2AD" fill="#F6A2AD"></path>
            <path d="M212.087817,73.7737033 C214.033293,71.5811821 216.936068,70.1915561 219.869723,70.3150784 L245.191797,70.3150784 C248.712183,70.3768396 252.26345,70.1915561 255.783836,70.4077201 C254.733896,71.1179735 253.467793,71.3958987 252.356092,71.9826297 C248.496019,73.7428227 245.191797,76.6764777 243.091918,80.3512666 C239.725935,86.2185766 238.552473,92.9505428 237.564294,99.5589867 C236.576116,106.043908 236.606996,112.744994 234.507117,119.044632 C233.08661,123.460555 230.92497,127.907358 227.18842,130.810133 C215.577322,130.933655 203.966224,130.841013 192.386007,130.871894 C191.613993,130.871894 190.872859,130.902774 190.131725,130.748372 C191.799276,130.007238 193.312425,128.895537 194.424125,127.44415 C196.771049,124.417853 198.191556,120.835706 199.365018,117.222678 C200.939928,112.343546 202.082509,107.310012 202.916285,102.245597 C203.997105,95.7915561 205.263209,89.3066345 207.208685,83.037877 C207.826297,81.277684 208.258625,79.4248492 209.370326,77.8808203 C210.296743,76.5220748 210.914355,74.9471653 212.087817,73.7737033 Z" stroke="#EB7077" fill="#EB7077"></path>
        </g>
    </g>
</svg>
